X:18221
T:Vaqueira
R:Vaqueirada
C:Tradicional
S:Msica Tradicional Asturiana, (C) Tello & Tito. Asturies, 2001.
S:http://pagina.de/MusTradAst <telloytito@asturies.org>
O:Somiedu
A:Asturies
B:Musicologa Asturiana - La Cancin Tradicional, Modesto Gonzlez Cobas
Z:La Cancin Tradicional, M.G.C.
M:6/8
L:1/8
Q:3/8=80
W:soy vaquera soy vaquera soy de la vaqueirada
W:soy fitsa de xuan berdasco del met medio la braa
K:Eb
|EEE EEG|B2 B-B3|AGF B2 B|B2 G-G3|BBB BAB|B2 G-G3|GBA GAA|GFE-E3|
